X: 1495
T: the Traveller   #2
T: aka Walker Street, Carpenter's Reel
T: an siu\.balta\.c
R: reel
%S: s:2 b:11(5+6)
O: F.O'Neill
Z: John B. Walsh, 8/22/96
N: Compacted via repeats with multiple endings [JC]
M: C|
L: 1/8
K: G
D2 | G2(BG) dGBG | ABcd cBAG | Bdgd ((3efg) [1 dB | cBAG FADF :|[2 (dc) | BGAF HG2 |]
|: (Bd) | {a}g2(dg) Bgdg | gabg agef |[1 g2(dg) Bgdg | cBAG FADF :|[2 gfga gfed | ((3efg) (fa) gedB |]
